!!!id: EG027
!!!page: 99-103
!!!COM: Anonymous
!!!LYR: Anonymous
!!!PTL@@FR: Chansons Populaires du Canada
!!!OTL@@FR: Dans les chantiers nous hivernerons
!!!PUB: G. E. Desbarats
!!!YEM:
!!!PDT: 1865
!!!SMA:
!!!OMD:
!!!AGN-Laforte:
!!!AGN-type:
!!!AGN-rime:
**kern
*clefG2
*k[]
*C:
*M2/4
*
*
=1
4g
4cc
=2
4.cc
8ee
=3
4dd
4cc
=4
2a
=5
4g
4dd
=6
4dd
4cc
!!LO:PB:g=original
=7
4ee
4dd
=8
2cc
==9
4ff
4ee
=10
4dd
4ff
=11
4ee
4dd
=12
2cc
!!LO:PB:g=original
=13
4a
8bL
8ccJ
=14
4dd
4cc
=15
4b/
4a
=16
4.g
8f
=17
4e
4g
!!LO:PB:g=original
=18
4cc
8cc
8cc
=19
4a
4a
=20
4.dd
8cc
=21
4dd
4ee
=22
4dd
8cc
8cc
!!LO:PB:g=original
=23
4.a
8b/
=24
2cc
==||
*
*
==|
!!!RNB: Original contains added quarter note on gg in upper voice, over final quarter notes of mm. 7 & 11
*-
